X:1
T:Title
%%score ( 1 2 3 ) { ( 4 6 7 ) | 5 }
L:1/8
M:4/4
K:F
V:1 treble nm="Bright Piano"
V:2 treble 
V:3 treble 
V:4 treble nm="Bright Piano"
V:6 treble 
V:7 treble 
V:5 bass 
V:1
 z4[Q:1/4=94] A2 G2 | F2 [Fc]2 [Fd]2 [Ec]2 |[M:6/4] B2- [GB]2 [FA]2- [FA]2 [EG]2 B-[EB] | %3
[M:4/4] [FA]2 [Fc]2 [FB]2 [FA]2 |[M:2/4] [EG]4 | A2 z E |[M:4/4] F2 [Fc]2 [Fd]2 [Ec]2 | %7
[M:6/4] B2- [GB]2 [FA]2- [FA]2 [EG]2 B-[EB] |[M:4/4] [FA]2 [Fc]2 [FB]2 [FA]2 |[M:2/4] [EG]4 | %10
 [EG]2 [Cc]2 |[M:4/4] [CA]2 [CG]2 [DF]2 [DG]2 | [CE]2 C2 [CA]2 [DB]2 | [Fc]2 [Fd]2 [EG]2 [CA]2 | %14
 [CG]4 [A,F]4 |] %15
V:2
 z4 F3 E | x8 |[M:6/4] .F6 z4 .D2 |[M:4/4] x8 |[M:2/4] x4 | z2 G2 |[M:4/4] x8 |[M:6/4] .F6 z4 .D2 | %8
[M:4/4] x8 |[M:2/4] x4 | x4 |[M:4/4] x8 | x8 | x8 | x8 |] %15
V:3
 x8 | x8 |[M:6/4] x12 |[M:4/4] x8 |[M:2/4] x4 | F4 |[M:4/4] x8 |[M:6/4] x12 |[M:4/4] x8 | %9
[M:2/4] x4 | x4 |[M:4/4] x8 | x8 | x8 | x8 |] %15
V:4
 z4 C2 C2 | A,2 C2 B,2 G,2 |[M:6/4] D2 C2 C2- C2 C2 B,2 |[M:4/4] C2 C2 D2 C2 |[M:2/4] C4 | C2 C2 | %6
[M:4/4][K:bass] A,2 C2 B,2 G,2 |[M:6/4] D2[K:treble] C2 C2- C2 C2 B,2 |[M:4/4] C2 C2 D2 C2 | %9
[M:2/4] C4 | C2[K:bass] G,2 |[M:4/4] F,2 G,2 A,2 G,2 | G,2 E,2 F,2 F,2 | C2 B,2 G,2 z2 | %14
 z2 E,2 F,4 |] %15
V:5
 z4 F,,2 C,2 | D,2 A,,2 B,,2 C,2 |[M:6/4] D,2 E,2 F,2- F,2 C,2 G,2 |[M:4/4] F,2 A,,2 B,,2 F,2 | %4
[M:2/4] C,4 | F,,2 C,2 |[M:4/4] D,2 A,,2 B,,2 C,2 |[M:6/4] D,2 E,2 F,2- F,2 C,2 G,2 | %8
[M:4/4] F,2 A,,2 B,,2 F,2 |[M:2/4] C,4 | C,2 E,2 |[M:4/4] z2 E,2 D,2 =B,,2 | C,2 C,2 z2 D,2 | %13
 A,,2 B,,2 C,2 z2 | z4 F,,4 |] %15
V:6
 x8 | x8 |[M:6/4] x12 |[M:4/4] x8 |[M:2/4] x4 | x4 |[M:4/4][K:bass] x8 |[M:6/4] x2[K:treble] x10 | %8
[M:4/4] x8 |[M:2/4] x4 | x2[K:bass] x2 |[M:4/4] x8 | x8 | z4 z2 F,2- | F,2 z2 z4 |] %15
V:7
 x8 | x8 |[M:6/4] x12 |[M:4/4] x8 |[M:2/4] x4 | x4 |[M:4/4][K:bass] x8 |[M:6/4] x2[K:treble] x10 | %8
[M:4/4] x8 |[M:2/4] x4 | x2[K:bass] x2 |[M:4/4] x8 | x8 | x8 | C,4 z4 |] %15

